projector-off.svg

<svg fill="currentColor" viewBox="0 0 24 24"><path d="M16 9c-1.03 0-1.9.79-2 1.82L16.18 13c2.54-.24 2.37-4-.18-4m-1 5.35 3.95 3.96v-.01M7.64 7l5.01 5-5-5M20 7h-.85a5.49 5.49 0 0 0-6.31 0h-2.65l2.61 2.61c.98-2.27 3.93-2.83 5.7-1.08 1.72 1.74 1.16 4.69-1.11 5.67l2.79 2.8A2.01 2.01 0 0 0 22 15V9c0-1.1-.9-2-2-2m-4 2c-1.03 0-1.9.79-2 1.82L16.18 13c2.54-.24 2.37-4-.18-4m0 0c-1.03 0-1.9.79-2 1.82L16.18 13c2.54-.24 2.37-4-.18-4m6.25 12.61L2.53 1.89 1.26 3.16 5.1 7H4c-1.1 0-2 .9-2 2v6a2 2 0 0 0 2 2h1v1c0 .55.45 1 1 1h2c.55 0 1-.45 1-1v-1h6v1c0 .55.45 1 1 1h1.1l3.9 3.89 1.26-1.28M8 14H4v-1h4m0-1H4v-1h4m0-1H4V9h3.1l.9.9M2.54 1.89 7.64 7 2.53 1.89M7.65 7l5 5-5.01-5m11.31 11.3v.01L15 14.35M7.64 7 2.53 1.89h.01M12.65 12 7.64 7h.01m11.3 11.3v.01L15 14.35"/></svg>

<svg  viewBox="0 0 24 24" fill="currentColor"><path  d="M16 9C14.97 9 14.1 9.79 14 10.82L16.18 13C18.72 12.76 18.55 9 16 9M15 14.35H15L18.95 18.31V18.3M7.64 7L12.65 12V12L7.65 7M20 7H19.15C17.26 5.67 14.73 5.67 12.84 7H10.19L12.8 9.61C13.78 7.34 16.73 6.78 18.5 8.53C20.22 10.27 19.66 13.22 17.39 14.2L20.18 17C21.21 16.9 22 16.04 22 15V9C22 7.9 21.1 7 20 7M16 9C14.97 9 14.1 9.79 14 10.82L16.18 13C18.72 12.76 18.55 9 16 9M16 9C14.97 9 14.1 9.79 14 10.82L16.18 13C18.72 12.76 18.55 9 16 9M22.25 21.61L2.53 1.89L1.26 3.16L5.1 7H4C2.9 7 2 7.9 2 9V15C2 16.11 2.9 17 4 17H5V18C5 18.55 5.45 19 6 19H8C8.55 19 9 18.55 9 18V17H15V18C15 18.55 15.45 19 16 19H17.1L21 22.89L22.26 21.61M8 14H4V13H8M8 12H4V11H8M8 10H4V9H7.1L8 9.9M2.54 1.89L7.64 7L2.53 1.89M7.65 7L12.65 12V12L7.64 7M18.95 18.3V18.31L15 14.35H15M7.64 7L2.53 1.89H2.54M12.65 12V12L7.64 7H7.65M18.95 18.3V18.31L15 14.35H15"/></svg>
